X:120
T:Colins Serenade THO4.120
M:2/4
L:1/8
Z:vmp. Peter Dunk 2010/11.from a transcription by Fynn Titford-Mock 2007
B:Thompson's Compleat Collection of 200 Favourite Country Dances Volume IV.
Q:1/4=140
K:A
Ac EA| [cC][eE][A2A,2]| AB cB/A/|ed/c/ BB|\
Ac EA| [cC][eE][A2A,2]| AB cB/A/|e/d/c/B/ A2:|
cd ed/c/|ag/f/ ee|dcBA|GA BE|cd ed/c/|ag/f/ ee|dcBA|c/B/A/G/ A2:|
